!!!OTL: TUK TUK  TUK MIEN HAEHNEKEN
!!!ARE: Europa, Mitteleuropa, Deutschland, Hannover
!!!SCT: E1847
!!!YEM: Copyright 1995, estate of Helmut Schaffrath.
**kern
*ICvox
*Ivox
*M2/4
*k[b-]
*F:
=1
{8f
8f
8f
8a
=2
8cc
8cc
8cc}
{8cc
=3
8dd
8ee
8ff
8dd
=4
4cc
8r}
{8cc
=5
8cc
8b-
8b-
8b-
=6
8b-
8a
8a}
{8a
=7
8g
8a
8b-
8g
=8
4f
4r}
==
!!!AGN: Kinder - Lied, Tier - Lied
!!!ONB: ESAC (Essen Associative Code) Database: ERK3
!!!AMT: simple duple
!!!AIN: vox
!!!EED: Helmut Schaffrath
!!!EEV: 1.0
*-
